packages/icons/svg/24/Glow.svg

<svg width="24" height="24" viewBox="0 0 24 24" fill="none" xmlns="http://www.w3.org/2000/svg">
<path fill-rule="evenodd" clip-rule="evenodd" d="M12 2C12.5523 2 13 2.44772 13 3V4C13 4.55228 12.5523 5 12 5C11.4477 5 11 4.55228 11 4V3C11 2.44772 11.4477 2 12 2ZM3.43937 3.43938C3.8299 3.04885 4.46306 3.04885 4.85359 3.43938L5.56069 4.14648C5.95122 4.53701 5.95122 5.17017 5.56069 5.5607C5.17017 5.95122 4.53701 5.95122 4.14648 5.5607L3.43937 4.85359C3.04885 4.46307 3.04885 3.8299 3.43937 3.43938ZM20.5607 3.43938C20.9512 3.8299 20.9512 4.46307 20.5607 4.85359L19.8536 5.5607C19.4631 5.95122 18.8299 5.95122 18.4394 5.5607C18.0489 5.17017 18.0489 4.53701 18.4394 4.14648L19.1465 3.43938C19.537 3.04885 20.1702 3.04885 20.5607 3.43938ZM5.1056 7.55279C5.27499 7.214 5.62126 7 6.00003 7H18C18.3788 7 18.7251 7.214 18.8945 7.55279L20.8945 11.5528C21.0869 11.9378 21.0115 12.4027 20.7071 12.7071L12.7071 20.7071C12.3166 21.0976 11.6834 21.0976 11.2929 20.7071L3.29292 12.7071C2.98856 12.4027 2.91311 11.9378 3.1056 11.5528L5.1056 7.55279ZM6.61806 9L5.61806 11H18.382L17.382 9H6.61806ZM17.5858 13H6.41424L12 18.5858L17.5858 13Z" fill="#858585"/>
</svg>

<svg width="24" height="24" fill="none" xmlns="http://www.w3.org/2000/svg" viewBox="0 0 24 24"><path fill-rule="evenodd" clip-rule="evenodd" d="M12 2a1 1 0 011 1v1a1 1 0 11-2 0V3a1 1 0 011-1zM3.44 3.44a1 1 0 011.414 0l.707.706a1 1 0 11-1.415 1.415l-.707-.707a1 1 0 010-1.415zm17.12 0a1 1 0 010 1.414l-.706.707a1 1 0 11-1.415-1.415l.707-.707a1 1 0 011.415 0zM5.107 7.552A1 1 0 016 7h12a1 1 0 01.895.553l2 4a1 1 0 01-.188 1.154l-8 8a1 1 0 01-1.414 0l-8-8a1 1 0 01-.187-1.154l2-4zM6.618 9l-1 2h12.764l-1-2H6.618zm10.968 4H6.414L12 18.586 17.586 13z" fill="currentColor"></path></svg>
